X:2390
L:1/8
Q:1/4=180
M:6/8
K:D
 A | d2 A d2 A | BAG FGA | Bcd ecA | d2 a a2 g | fef B2 B | ede A2 A | dcB AFA | d3 d2 :: A | 
 F2 A AFA | BGB AFD | F2 A AFA | BGe c2 A | f2 f fgf | fgf fed | e2 e efe | efe ecA | dcB A2 G | 
 FGA f2 e | dcB ABc | d3 d2 :|

